icons/mobile/24/svg/globe-24.svg

<svg width="24" height="24" viewBox="0 0 24 24" fill="none" xmlns="http://www.w3.org/2000/svg">
<path fill-rule="evenodd" clip-rule="evenodd" d="M12 2C17.5228 2 22 6.47715 22 12C22 17.5228 17.5228 22 12 22C6.47715 22 2 17.5228 2 12C2 6.47715 6.47715 2 12 2ZM7.06348 12.002C6.02922 12.1605 4.92987 12.3801 3.78027 12.6797C4.06367 16.1538 6.49755 19.0163 9.75 19.9365C8.06576 17.7374 7.06391 14.9864 7.06348 12.002ZM16.9365 12.002C16.936 14.9866 15.9327 17.7372 14.248 19.9365C17.5011 19.0169 19.9349 16.1549 20.2188 12.6807C19.2635 12.4319 18.1638 12.1901 16.9365 12.002ZM12 11.625C11.0729 11.625 10.0013 11.6647 8.81543 11.7812C8.81404 11.8542 8.81348 11.9277 8.81348 12.001C8.81373 15.0585 10.0282 17.8295 12 19.8662C13.9719 17.8293 15.1874 15.0577 15.1875 12C15.1875 11.9271 15.185 11.8538 15.1836 11.7812C14.1859 11.6832 13.1222 11.625 12 11.625ZM14.248 4.0625C15.5917 5.81591 16.5017 7.92036 16.8154 10.2148C18.0557 10.3905 19.1787 10.6207 20.1699 10.8633C19.7195 7.59608 17.3577 4.94147 14.248 4.0625ZM9.75098 4.0625C6.64233 4.94157 4.28006 7.59526 3.8291 10.8613C5.00548 10.5733 6.12853 10.3632 7.18359 10.2139C7.49746 7.92009 8.40788 5.81589 9.75098 4.0625ZM11.999 4.13281C10.4657 5.71668 9.39022 7.74468 8.98828 10.0068C10.1016 9.90889 11.1135 9.87501 12 9.875C13.0546 9.87501 14.0599 9.9241 15.0107 10.0078C14.6088 7.74463 13.5333 5.71647 11.999 4.13281Z" fill="black"/>
</svg>

<!-- This Source Code Form is subject to the terms of the Mozilla Public
   - License, v. 2.0. If a copy of the MPL was not distributed with this
   - file, You can obtain one at http://mozilla.org/MPL/2.0/. -->
<svg xmlns="http://www.w3.org/2000/svg" width="24" height="24" fill="none" viewBox="0 0 24 24">
    <path fill="#000" fill-rule="evenodd" d="M12 2c5.523 0 10 4.477 10 10s-4.477 10-10 10S2 17.523 2 12 6.477 2 12 2M7.063 12.002a33 33 0 0 0-3.283.678 8.25 8.25 0 0 0 5.97 7.256 13 13 0 0 1-2.687-7.934m9.874 0a13 13 0 0 1-2.689 7.934 8.25 8.25 0 0 0 5.97-7.255 33 33 0 0 0-3.282-.679M12 11.625c-.927 0-1.999.04-3.185.156l-.002.22A11.27 11.27 0 0 0 12 19.866 11.27 11.27 0 0 0 15.188 12q-.001-.11-.004-.219A33 33 0 0 0 12 11.625m2.248-7.562a13 13 0 0 1 2.567 6.152c1.24.175 2.364.406 3.355.648a8.26 8.26 0 0 0-5.922-6.8m-4.497 0a8.26 8.26 0 0 0-5.922 6.798c1.176-.288 2.3-.498 3.355-.647A13 13 0 0 1 9.75 4.063m2.248.07a11.3 11.3 0 0 0-3.01 5.874 34.4 34.4 0 0 1 6.022 0 11.27 11.27 0 0 0-3.012-5.874" clip-rule="evenodd" />
</svg>
